packages/astro-components-stencil/src/icons/photo-album.svg

<svg xmlns="http://www.w3.org/2000/svg" viewBox="0 0 24 24"><g xmlns="http://www.w3.org/2000/svg" id="photo-album" fill-rule="nonzero">
            <path d="M18 2H6c-1.1 0-2 .9-2 2v16c0 1.1.9 2 2 2h12c1.1 0 2-.9 2-2V4c0-1.1-.9-2-2-2zM6 4h5v8l-2.5-1.5L6 12V4zm.63 14.19l1.99-2.56a.5.5 0 01.78-.01l1.74 2.1 2.6-3.34c.2-.26.6-.26.79.01l2.87 3.82a.5.5 0 01-.4.8H7.02c-.41-.01-.65-.49-.39-.82z"/>
        </g></svg>

<svg width="24" height="24" viewBox="0 0 24 24" fill="none" xmlns="http://www.w3.org/2000/svg">
<path fill-rule="evenodd" clip-rule="evenodd" d="M18 2H6C4.9 2 4 2.9 4 4V20C4 21.1 4.9 22 6 22H18C19.1 22 20 21.1 20 20V4C20 2.9 19.1 2 18 2ZM6 4H11V12L8.5 10.5L6 12V4ZM8.62 15.63L6.63 18.19C6.37 18.52 6.61 19 7.02 19.01H17C17.41 19.01 17.65 18.54 17.4 18.21L14.53 14.39C14.34 14.12 13.94 14.12 13.74 14.38L11.14 17.72L9.4 15.62C9.2 15.37 8.82 15.38 8.62 15.63Z" fill="black"/>
</svg>
